!!!OTL: 189. Sher
!!!Genre:	Sher
!!!Mode:	Minor
!!!Listening/dance:	dance
!!!:	*g:
!!!One_Mode:	no
**kern
*thru
*I"P1
!!pagebreak:original
*clefG2
*k[b-e-]
!!!Begin-Modulation
*g:
=15
!LO:TX:a:i:t=G-minor
(16ddLL
16ccJ
8b-J)
(16b-LL
16aJ
8gJ)
=16
*>A1
4g
4gg
=17:|!
*>A
!LO:TX:a:i:t=Bb-major
8b-
=1
(16b-LL
16ddJ)
8ddJ
16ddLL
16ccJ
8b-J
=2
4b-
8.ccTL
16b-Jk
=3
(16b-LL
16ddJ)
8ddJ
16ddLL
16ccJ
8b-J
=4
4b-
8r
8dd
=5
(16ddLL
16ffJ
8ee-J)
16ee-LL
16ddJ
8ccJ
!!linebreak:original
=6
4cc
4dd
=7
8ee-L
8ffJ
8ddL
8b-J
=8
(4.ccT
8b-)
=9
8ddL
8ddJ
16ddLL
16ccJ
8b-J
=10
4b-
8.ccTL
16b-Jk
=11
(16b-LL
16ddJ)
8ddJ
16ddLL
16ccJ
8b-J
!!linebreak:original
=12
4b-
4r
=13
8fL
24b-L
24cc
24b-JJ
8aL
8b-J
=14
8ccL
8b-J
4dd
!!!End-Modulation
*g:
=15
!LO:TX:a:i:t=G-minor
(16ddLL
16ccJ
8b-J)
(16b-LL
16aJ
8gJ)
=16
*>A2
!LO:TX:b:Bi:t=Fine
2g
!!linebreak:original
!!!Begin-Modulation
*g:
=26
!LO:TX:a:i:t=G-minor
8b-L
8a
8b-
8ccJ
=27
8dd-X
4cc
(16b-LL
16ddnJJ)
=28
(16ddLL
16ccJ
8b-J)
(16b-LL
16aJ
!LO:TX:b:Bi:t=Da Capo al Fine
8gJ)
=29
4g
4r
==
*-
